src/shared/assets/logo/Logotype.svg

<svg xmlns="http://www.w3.org/2000/svg" fill="none" viewBox="0 0 210 330">
  <path fill="#C96623" d="M77.2225 3.79328C59.8555 14.1558 24.7031 35.0938 23.0292 35.9455-5.60556 50.5153 4.93993 95.2133 4.93961 129.792c-.00031 34.579 14.46559 38.595 21.64669 44.77 10.183 6.601 34.7758 22.059 51.6824 31.088 16.9066 9.028 21.9703 13.627 21.9703 30.661.209 16.254.502 52.764 0 68.776C99.7367 321.1 89.9192 328.722 81.5496 330c13.1152-.639 21.5664-3.155 25.8034-5.323 22.328-11.427 67.617-41.804 82.715-51.93l.353-.238c14.731-9.88 16.53-20.827 16.53-25.551-.139-9.298-.334-35.304 0-64.943.335-29.64-14.28-41.082-22.179-45.567-12.624-7.169-41.555-23.635-56.286-32.152-14.73-8.5175-21.133-13.202-21.133-35.9853.209-5.6072.502-22.9112 0-47.2702-.502-24.35904-21.2003-23.63505-30.1305-17.24722Z"/>
  <path fill="#fff" fill-rule="evenodd" d="M96.7374 9.96009c.2584-.52591.8868-.73908 1.4036-.47612.5575.28363.9849.75733 1.3154 1.26193.3351.5115.6146 1.1216.8506 1.7722.473 1.3006.821 2.8912 1.077 4.4858.511 3.1865.682 6.5681.683 8.1131.502 24.3391.21 41.6481 0 47.3016.002 11.3005 1.597 17.9015 4.858 22.7181 3.285 4.8516 8.35 8.0443 15.746 12.3213 14.727 8.515 43.654 24.979 56.279 32.148 4.036 2.292 9.814 6.378 14.536 13.692 4.727 7.322 8.349 17.807 8.18 32.817-.168 14.807-.041 28.711.064 40.082l.003.297c.104 11.205.185 19.965-.069 24.611-.118 2.163-1.102 4.628-2.428 6.831-1.334 2.217-3.092 4.084-4.894 5.459-.462.353-3.628 2.6-3.975 2.13-.347-.471 2.534-2.981 2.929-3.407 3.557-3.833 3.166-3.069 4.394-5.11 1.237-2.055 1.794-4.353 1.885-6.021.25-4.577.169-13.293.064-24.607l-.001-.163c-.105-11.37-.232-25.295-.065-40.127.166-14.63-3.36-24.69-7.836-31.622-4.48-6.941-9.959-10.818-13.807-13.003-12.624-7.168-41.558-23.636-56.293-32.156-7.333-4.24-12.836-7.648-16.435-12.9642-3.621-5.3479-5.2272-12.4758-5.2272-23.9464v-.0202l.0007-.0201c.2085-5.5811.5015-22.8635-.0005-47.2075l-.0002-.0111v-.0112c0-1.4413-.1641-4.7156-.6559-7.7813-.2464-1.5355-.5681-2.9738-.9739-4.09-.2029-.5578-.4154-1.003-.6295-1.3299-.2187-.3338-.3981-.4816-.5102-.5386-.5168-.263-.7263-.9025-.4679-1.42841Z" clip-rule="evenodd"/>
  <path fill="#fff" d="m29.5155 255.263 51.4732-27.254c6.6286-3.194 10.8134-7.453 12.4874.851 1.6739 8.304 1.0434 17.176 1.3224 21.932 0 16.608.1257 50.34 0 52.38-.4855 7.879-1.7501 16.985-9.8343 22.145-4.6703 2.981-16.5997-.142-21.1333-3.194-6.7654-4.188-26.3764-14.234-44.7774-29.171-17.00151-13.801-5.7026-31.048 10.462-37.689Z"/>
</svg>

<svg  viewBox="0 0 210 330" fill="none" xmlns="http://www.w3.org/2000/svg">
<path d="M77.2225 3.79328C59.8555 14.1558 24.7031 35.0938 23.0292 35.9455C-5.60556 50.5153 4.93993 95.2133 4.93961 129.792C4.9393 164.371 19.4052 168.387 26.5863 174.562C36.7693 181.163 61.3621 196.621 78.2687 205.65C95.1753 214.678 100.239 219.277 100.239 236.311C100.448 252.565 100.741 289.075 100.239 305.087C99.7367 321.1 89.9192 328.722 81.5496 330C94.6648 329.361 103.116 326.845 107.353 324.677C129.681 313.25 174.97 282.873 190.068 272.747L190.421 272.509C205.152 262.629 206.951 251.682 206.951 246.958C206.812 237.66 206.617 211.654 206.951 182.015C207.286 152.375 192.671 140.933 184.772 136.448C172.148 129.279 143.217 112.813 128.486 104.296C113.756 95.7785 107.353 91.094 107.353 68.3107C107.562 62.7035 107.855 45.3995 107.353 21.0405C106.851 -3.31854 86.1527 -2.59455 77.2225 3.79328Z" fill="#C96623"/>
<path fill-rule="evenodd" clip-rule="evenodd" d="M96.7374 9.96009C96.9958 9.43418 97.6242 9.22101 98.141 9.48397C98.6985 9.7676 99.1259 10.2413 99.4564 10.7459C99.7915 11.2574 100.071 11.8675 100.307 12.5181C100.78 13.8187 101.128 15.4093 101.384 17.0039C101.895 20.1904 102.066 23.572 102.067 25.117C102.569 49.4561 102.277 66.7651 102.067 72.4186C102.069 83.7191 103.664 90.3201 106.925 95.1367C110.21 99.9883 115.275 103.181 122.671 107.458C137.398 115.973 166.325 132.437 178.95 139.606C182.986 141.898 188.764 145.984 193.486 153.298C198.213 160.62 201.835 171.105 201.666 186.115C201.498 200.922 201.625 214.826 201.73 226.197L201.733 226.494C201.837 237.699 201.918 246.459 201.664 251.105C201.546 253.268 200.562 255.733 199.236 257.936C197.902 260.153 196.144 262.02 194.342 263.395C193.88 263.748 190.714 265.995 190.367 265.525C190.02 265.054 192.901 262.544 193.296 262.118C196.853 258.285 196.462 259.049 197.69 257.008C198.927 254.953 199.484 252.655 199.575 250.987C199.825 246.41 199.744 237.694 199.639 226.38L199.638 226.217C199.533 214.847 199.406 200.922 199.573 186.09C199.739 171.46 196.213 161.4 191.737 154.468C187.257 147.527 181.778 143.65 177.93 141.465C165.306 134.297 136.372 117.829 121.637 109.309C114.304 105.069 108.801 101.661 105.202 96.3448C101.581 90.9969 99.9748 83.869 99.9748 72.3984V72.3782L99.9755 72.3581C100.184 66.777 100.477 49.4946 99.975 25.1506L99.9748 25.1395V25.1283C99.9748 23.687 99.8107 20.4127 99.3189 17.347C99.0725 15.8115 98.7508 14.3732 98.345 13.257C98.1421 12.6992 97.9296 12.254 97.7155 11.9271C97.4968 11.5933 97.3174 11.4455 97.2053 11.3885C96.6885 11.1255 96.479 10.486 96.7374 9.96009Z" fill="white"/>
<path d="M29.5155 255.263L80.9887 228.009C87.6173 224.815 91.8021 220.556 93.4761 228.86C95.15 237.164 94.5195 246.036 94.7985 250.792C94.7985 267.4 94.9242 301.132 94.7985 303.172C94.313 311.051 93.0484 320.157 84.9642 325.317C80.2939 328.298 68.3645 325.175 63.8309 322.123C57.0655 317.935 37.4545 307.889 19.0535 292.952C2.05199 279.151 13.3509 261.904 29.5155 255.263Z" fill="white"/>
</svg>
